X:1
T: O'Gallagher's Frolics
C:
R:Jig
Q:180
K:Dm
M:6/8
L:1/16
A,2|D2E2D2 F2E2D2|A2B2A2 c2A2G2|A2B2A2 A4G2|F2A2F2 G2E2C2|D2E2D2 F2E2D2|A2B2A2 c2A2G2|A2G2F2 E2D2E2|F2D2D2 D4A,2|
D2E2D2 F2E2D2|A2B2A2 c2A2G2|A2B2A2 A4G2|F2A2F2 G2E2C2|D2E2D2 F2E2D2|A2B2A2 c2A2G2|A2G2F2 E2D2E2|F2D2D2 D4A2|
d4e2 f2e2d2|f4g2 a2g2f2|c2e2f2 g2e2c2|g2e2c2 g2e2c2|d2e2d2 f2e2d2|c2e2d2 c2A2G2|A2G2F2 E2D2E2|F2D2D2 D4A2|
d4e2 f2e2d2|f4g2 a2g2f2|c2e2f2 g2e2c2|g2e2c2 g2e2c2|d2e2d2 f2e2d2|c2e2d2 c2A2G2|A2G2F2 E2D2E2|F2D2D2 D4||
